X:4
T:Adson's Saraband
T:The New Royal Exchange
M:2/2
L:1/4
Q:1/2=120
C:John Playford, ~1657
%%MIDI ratio 3 1
K:F
P:A
|: "F"a/g/f/e/ "/"fc | "Bb"d/e/f/g/ "C"ea/g/ | "Dm"f/e/d "Am"d3/c/ | "Dm"d3 "/"A |\
"Bb"de "/"f3/f/ | "Gm"ga "/"b3/b/ | "Dm"a/g/f "A7"e3/ d/ | "Dm"d4 :|
P:B
|: "F"cd/e/ "/"f3/A/ | "Bb"B/c/d "C"c3/c/ | "Bb"d/e/f "Gm"e3/f/ | "C"g3 a |\
"Gm"ba "Bb"g3/f/ | "C"e3/d/ "/"c3/c/ | "Bb"d/e/f "C"e3/f/ | "F"f4 :|
N:Replace by blank line and X field
T:Adson's Saraband (original)
C:John Playford, 1651
M:6/8
L:1/8
S:Colin Hume's website,  colinhume.com  - chords can also be printed below the stave.
Q:3/8=120
K:D
"D"f2f e2d | "/"fga e2d | "A"cde "Bm"fBc | "G"dcB "A"A2G |\
"D"FGA "D7"FGA | "G"Bcd "A"c2B | "D"Aef "G"gBc | "Bm"def "A7"e2d |

